;FLAVOR:Marlin
;TIME:29580
;Filament used: 83.8695m
;Layer height: 0.6
;MINX:1.553
;MINY:11.296
;MINZ:0.3
;MAXX:191.43
;MAXY:192.01
;MAXZ:45.3
;Generated with Cura_SteamEngine 4.7.0
M140 S60
M105
M190 S60
M104 S200
M105
M109 S200
M82 ;absolute extrusion mode
G28 ;Home
G1 Z15.0 F6000 ;Move the platform down 15mm
;Prime the extruder
G92 E0
G1 F200 E3
G92 E0
G92 E0
G92 E0
G1 F1500 E-1.5
;LAYER_COUNT:76
;LAYER:0
M107
G0 F3600 X6.813 Y12.48 Z0.3
;TYPE:SKIRT
G1 F1500 E0
G1 F1800 X7.504 Y12.096 E0.03944
G1 X8.229 Y11.784 E0.07882
G1 X8.982 Y11.547 E0.1182
G1 X9.756 Y11.388 E0.15762
G1 X10.541 Y11.307 E0.19699
G1 X10.943 Y11.297 E0.21706
G1 X50.831 Y11.296 E2.20708
G1 X127.543 Y11.297 E6.03425
G1 X128.332 Y11.337 E6.07367
G1 X129.112 Y11.457 E6.11304
G1 X129.877 Y11.654 E6.15245
G1 X130.617 Y11.928 E6.19182
G1 X131.327 Y12.276 E6.23127
G1 X131.997 Y12.694 E6.27067
G1 X132.621 Y13.177 E6.31003
G1 X133.194 Y13.721 E6.34945
G1 X133.709 Y14.319 E6.38883
G1 X134.16 Y14.967 E6.42821
G1 X134.544 Y15.658 E6.46765
G1 X134.856 Y16.383 E6.50703
G1 X135.093 Y17.136 E6.54642
G1 X135.252 Y17.91 E6.58584
G1 X135.333 Y18.695 E6.62521
G1 X135.343 Y19.097 E6.64527
G1 X135.343 Y43.007 E7.83814
G1 X135.303 Y43.796 E7.87756
G1 X135.184 Y44.576 E7.91692
G1 X134.986 Y45.341 E7.95635
G1 X134.712 Y46.081 E7.99572
G1 X134.364 Y46.79 E8.03512
G1 X133.946 Y47.461 E8.07456
G1 X133.463 Y48.085 E8.11393
G1 X132.92 Y48.658 E8.15331
G1 X132.321 Y49.173 E8.19272
G1 X131.673 Y49.624 E8.23211
G1 X130.982 Y50.008 E8.27155
G1 X130.257 Y50.32 E8.31093
G1 X129.504 Y50.557 E8.35031
G1 X128.73 Y50.716 E8.38973
G1 X127.945 Y50.797 E8.4291
G1 X127.543 Y50.807 E8.44917
G1 X87.655 Y50.808 E10.43919
G1 X10.943 Y50.807 E14.26636
G1 X10.155 Y50.767 E14.30573
G1 X9.374 Y50.648 E14.34514
G1 X8.609 Y50.45 E14.38457
G1 X7.869 Y50.176 E14.42393
G1 X7.16 Y49.828 E14.46334
G1 X6.489 Y49.411 E14.50275
G1 X5.865 Y48.927 E14.54215
G1 X5.292 Y48.384 E14.58153
G1 X4.778 Y47.785 E14.62091
G1 X4.326 Y47.137 E14.66033
G1 X3.942 Y46.447 E14.69973
G1 X3.63 Y45.721 E14.73915
G1 X3.393 Y44.968 E14.77853
G1 X3.234 Y44.194 E14.81795
G1 X3.153 Y43.409 E14.85733
G1 X3.143 Y43.007 E14.87739
G1 X3.143 Y19.097 E16.07026
G1 X3.183 Y18.308 E16.10968
G1 X3.302 Y17.528 E16.14904
G1 X3.5 Y16.763 E16.18847
G1 X3.774 Y16.023 E16.22783
G1 X4.122 Y15.314 E16.26724
G1 X4.54 Y14.643 E16.30668
G1 X5.023 Y14.019 E16.34605
G1 X5.566 Y13.446 E16.38543
G1 X6.165 Y12.931 E16.42484
G1 X6.813 Y12.48 E16.46423
G0 F3600 X7.196 Y12.716
G1 F1800 X7.879 Y12.361 E16.50263
G1 X8.594 Y12.08 E16.54096
G1 X9.336 Y11.874 E16.57938
G1 X10.094 Y11.746 E16.61773
G1 X10.943 Y11.697 E16.66016
G1 X50.831 Y11.696 E18.65018
G1 X127.543 Y11.697 E22.47735
G1 X128.311 Y11.737 E22.51572
G1 X129.071 Y11.856 E22.5541
G1 X129.814 Y12.054 E22.59246
G1 X130.533 Y12.328 E22.63085
G1 X131.22 Y12.675 E22.66925
G1 X131.866 Y13.091 E22.70758
G1 X132.466 Y13.572 E22.74595
G1 X133.013 Y14.113 E22.78433
G1 X133.501 Y14.708 E22.82272
G1 X133.924 Y15.35 E22.86108
G1 X134.279 Y16.033 E22.89948
G1 X134.56 Y16.749 E22.93786
G1 X134.766 Y17.49 E22.97623
G1 X134.894 Y18.248 E23.01458
G1 X134.943 Y19.097 E23.05701
G1 X134.943 Y43.007 E24.24988
G1 X134.903 Y43.775 E24.28825
G1 X134.784 Y44.535 E24.32663
G1 X134.586 Y45.278 E24.36499
G1 X134.312 Y45.997 E24.40338
G1 X133.965 Y46.683 E24.44173
G1 X133.549 Y47.33 E24.48011
G1 X133.068 Y47.93 E24.51847
G1 X132.527 Y48.477 E24.55685
G1 X131.932 Y48.965 E24.59525
G1 X131.29 Y49.388 E24.6336
G1 X130.607 Y49.743 E24.67201
G1 X129.892 Y50.024 E24.71033
G1 X129.15 Y50.23 E24.74875
G1 X128.392 Y50.358 E24.7871
G1 X127.543 Y50.407 E24.82953
G1 X87.655 Y50.408 E26.81955
G1 X10.943 Y50.407 E30.64673
G1 X10.175 Y50.367 E30.6851
G1 X9.415 Y50.248 E30.72348
G1 X8.672 Y50.05 E30.76184
G1 X7.953 Y49.776 E30.80023
G1 X7.267 Y49.429 E30.83858
G1 X6.62 Y49.013 E30.87695
G1 X6.02 Y48.532 E30.91532
G1 X5.473 Y47.991 E30.9537
G1 X4.985 Y47.396 E30.99209
G1 X4.562 Y46.754 E31.03045
G1 X4.207 Y46.071 E31.06885
G1 X3.926 Y45.356 E31.10718
G1 X3.72 Y44.615 E31.14555
G1 X3.592 Y43.856 E31.18395
G1 X3.543 Y43.007 E31.22638
G1 X3.543 Y19.097 E32.41926
G1 X3.583 Y18.329 E32.45762
G1 X3.702 Y17.569 E32.496
G1 X3.9 Y16.826 E32.53436
G1 X4.174 Y16.107 E32.57275
G1 X4.521 Y15.421 E32.61111
G1 X4.937 Y14.774 E32.64948
G1 X5.418 Y14.174 E32.68785
G1 X5.959 Y13.627 E32.72623
G1 X6.554 Y13.139 E32.76462
G1 X7.196 Y12.716 E32.80298
G0 F3600 X6.941 Y13.354
G1 F1800 X7.577 Y12.959 E32.84033
G1 X8.251 Y12.635 E32.87764
G1 X8.956 Y12.385 E32.91496
G1 X9.684 Y12.211 E32.9523
G1 X10.426 Y12.116 E32.98962
G1 X10.943 Y12.097 E33.01543
G1 X50.831 Y12.096 E35.00545
G1 X127.543 Y12.097 E38.83263
G1 X128.29 Y12.137 E38.86995
G1 X129.029 Y12.256 E38.90729
G1 X129.75 Y12.454 E38.9446
G1 X130.446 Y12.727 E38.9819
G1 X131.109 Y13.074 E39.01923
G1 X131.732 Y13.489 E39.05658
G1 X132.306 Y13.968 E39.09387
G1 X132.827 Y14.505 E39.1312
G1 X133.286 Y15.095 E39.1685
G1 X133.681 Y15.731 E39.20585
G1 X134.005 Y16.405 E39.24316
G1 X134.255 Y17.11 E39.28048
G1 X134.429 Y17.838 E39.31782
G1 X134.524 Y18.58 E39.35514
G1 X134.543 Y19.097 E39.38095
G1 X134.543 Y43.007 E40.57383
G1 X134.503 Y43.754 E40.61115
G1 X134.384 Y44.492 E40.64844
G1 X134.186 Y45.214 E40.68579
G1 X133.913 Y45.91 E40.72309
G1 X133.566 Y46.573 E40.76043
G1 X133.151 Y47.196 E40.79777
G1 X132.672 Y47.77 E40.83507
G1 X132.135 Y48.291 E40.8724
G1 X131.545 Y48.75 E40.90969
G1 X130.909 Y49.145 E40.94704
G1 X130.235 Y49.469 E40.98435
G1 X129.53 Y49.719 E41.02167
G1 X128.802 Y49.893 E41.05901
G1 X128.06 Y49.988 E41.09634
G1 X127.543 Y50.007 E41.12215
G1 X87.655 Y50.008 E43.11217
G1 X10.943 Y50.007 E46.93934
G1 X10.196 Y49.967 E46.97666
G1 X9.458 Y49.848 E47.01396
G1 X8.736 Y49.65 E47.05131
G1 X8.04 Y49.377 E47.08861
G1 X7.377 Y49.03 E47.12594
G1 X6.754 Y48.615 E47.16329
G1 X6.18 Y48.136 E47.20059
G1 X5.66 Y47.599 E47.23788
G1 X5.2 Y47.009 E47.27521
G1 X4.805 Y46.373 E47.31256
G1 X4.481 Y45.699 E47.34987
G1 X4.231 Y44.994 E47.38718
G1 X4.057 Y44.266 E47.42453
G1 X3.962 Y43.524 E47.46185
G1 X3.943 Y43.007 E47.48766
G1 X3.943 Y19.097 E48.68053
G1 X3.983 Y18.35 E48.71786
G1 X4.102 Y17.612 E48.75515
G1 X4.3 Y16.89 E48.7925
G1 X4.573 Y16.194 E48.8298
G1 X4.92 Y15.531 E48.86713
G1 X5.335 Y14.908 E48.90448
G1 X5.814 Y14.334 E48.94178
G1 X6.351 Y13.813 E48.97911
G1 X6.941 Y13.354 E49.0164
G0 F3600 X7.327 Y13.576
G1 F1800 X7.956 Y13.212 E49.05266
G1 X8.621 Y12.919 E49.08891
G1 X9.314 Y12.701 E49.12516
G1 X10.026 Y12.561 E49.16136
G1 X10.943 Y12.497 E49.20722
G1 X50.831 Y12.496 E51.19724
G1 X127.543 Y12.497 E55.02442
G1 X128.268 Y12.537 E55.06064
G1 X128.985 Y12.656 E55.0969
G1 X129.684 Y12.854 E55.13315
G1 X130.357 Y13.127 E55.16938
G1 X130.996 Y13.472 E55.20561
G1 X131.593 Y13.886 E55.24186
G1 X132.141 Y14.362 E55.27807
G1 X132.634 Y14.896 E55.31433
G1 X133.064 Y15.481 E55.35055
G1 X133.428 Y16.11 E55.38681
G1 X133.721 Y16.775 E55.42306
G1 X133.939 Y17.468 E55.45931
G1 X134.079 Y18.18 E55.49551
G1 X134.143 Y19.097 E55.54137
G1 X134.143 Y43.007 E56.73424
G1 X134.103 Y43.732 E56.77047
G1 X133.984 Y44.449 E56.80673
G1 X133.786 Y45.148 E56.84297
G1 X133.513 Y45.821 E56.87921
G1 X133.168 Y46.46 E56.91544
G1 X132.754 Y47.057 E56.95168
G1 X132.278 Y47.605 E56.9879
G1 X131.744 Y48.098 E57.02416
G1 X131.159 Y48.528 E57.06038
G1 X130.53 Y48.892 E57.09663
G1 X129.865 Y49.185 E57.13289
G1 X129.172 Y49.403 E57.16913
G1 X128.46 Y49.543 E57.20533
G1 X127.543 Y49.607 E57.2512
G1 X87.655 Y49.608 E59.24122
G1 X10.943 Y49.607 E63.06839
G1 X10.218 Y49.567 E63.10462
G1 X9.501 Y49.448 E63.14088
G1 X8.802 Y49.25 E63.17712
G1 X8.129 Y48.977 E63.21336
G1 X7.49 Y48.632 E63.24959
G1 X6.893 Y48.218 E63.28583
G1 X6.345 Y47.742 E63.32205
G1 X5.853 Y47.208 E63.35827
G1 X5.422 Y46.623 E63.39452
G1 X5.058 Y45.994 E63.43078
G1 X4.765 Y45.33 E63.46699
G1 X4.547 Y44.637 E63.50323
G1 X4.407 Y43.924 E63.53948
G1 X4.343 Y43.007 E63.58534
G1 X4.343 Y19.097 E64.77822
G1 X4.383 Y18.372 E64.81444
G1 X4.502 Y17.655 E64.8507
G1 X4.7 Y16.956 E64.88695
G1 X4.973 Y16.283 E64.92318
G1 X5.318 Y15.644 E64.95941
G1 X5.732 Y15.047 E64.99566
G1 X6.208 Y14.499 E65.03187
G1 X6.742 Y14.006 E65.06813
G1 X7.327 Y13.576 E65.10435
G0 F3600 X7.711 Y13.806
G1 F1800 X8.332 Y13.474 E65.13948
G1 X8.986 Y13.214 E65.1746
G1 X9.666 Y13.03 E65.20974
G1 X10.362 Y12.924 E65.24487
G1 X10.943 Y12.897 E65.27388
G1 X50.831 Y12.896 E67.2639
G1 X127.543 Y12.897 E71.09108
G1 X128.246 Y12.937 E71.12621
G1 X128.94 Y13.056 E71.16134
G1 X129.616 Y13.254 E71.19648
G1 X130.265 Y13.526 E71.23159
G1 X130.879 Y13.871 E71.26673
G1 X131.45 Y14.283 E71.30186
G1 X131.97 Y14.756 E71.33693
G1 X132.434 Y15.286 E71.37207
G1 X132.834 Y15.865 E71.40718
G1 X133.166 Y16.486 E71.44231
G1 X133.426 Y17.14 E71.47742
G1 X133.61 Y17.82 E71.51257
G1 X133.716 Y18.516 E71.54769
G1 X133.743 Y19.097 E71.57671
G1 X133.743 Y43.007 E72.76958
G1 X133.703 Y43.71 E72.80471
G1 X133.584 Y44.404 E72.83984
G1 X133.386 Y45.079 E72.87494
G1 X133.114 Y45.728 E72.91004
G1 X132.769 Y46.342 E72.94518
G1 X132.358 Y46.913 E72.98028
G1 X131.884 Y47.434 E73.01542
G1 X131.354 Y47.898 E73.05056
G1 X130.775 Y48.298 E73.08567
G1 X130.154 Y48.63 E73.12081
G1 X129.5 Y48.89 E73.15592
G1 X128.82 Y49.074 E73.19106
G1 X128.124 Y49.18 E73.22619
G1 X127.543 Y49.207 E73.2552
G1 X87.655 Y49.208 E75.24522
G1 X10.943 Y49.207 E79.0724
G1 X10.24 Y49.167 E79.10753
G1 X9.547 Y49.048 E79.14261
G1 X8.871 Y48.85 E79.17775
G1 X8.222 Y48.578 E79.21286
G1 X7.608 Y48.233 E79.248
G1 X7.037 Y47.822 E79.2831
G1 X6.516 Y47.348 E79.31824
G1 X6.053 Y46.818 E79.35335
G1 X5.652 Y46.239 E79.38849
G1 X5.32 Y45.618 E79.42362
G1 X5.06 Y44.964 E79.45873
G1 X4.876 Y44.284 E79.49388
G1 X4.77 Y43.588 E79.529
G1 X4.743 Y43.007 E79.55802
G1 X4.743 Y19.097 E80.75089
G1 X4.783 Y18.394 E80.78602
G1 X4.902 Y17.7 E80.82115
G1 X5.1 Y17.025 E80.85625
G1 X5.372 Y16.376 E80.89135
G1 X5.717 Y15.762 E80.92649
G1 X6.128 Y15.191 E80.96159
G1 X6.602 Y14.67 E80.99673
G1 X7.132 Y14.206 E81.03187
G1 X7.711 Y13.806 E81.06698
G0 F3600 X8.093 Y14.045
G1 F1800 X8.705 Y13.746 E81.10096
G1 X9.347 Y13.521 E81.1349
G1 X10.012 Y13.372 E81.1689
G1 X10.943 Y13.297 E81.2155
G1 X50.831 Y13.296 E83.20552
G1 X127.543 Y13.297 E87.0327
G1 X128.223 Y13.337 E87.06668
G1 X128.893 Y13.456 E87.10063
G1 X129.545 Y13.653 E87.13461
G1 X130.169 Y13.926 E87.16859
G1 X130.757 Y14.269 E87.20256
G1 X131.301 Y14.679 E87.23654
G1 X131.792 Y15.15 E87.27049
G1 X132.226 Y15.675 E87.30447
G1 X132.595 Y16.247 E87.33843
G1 X132.894 Y16.859 E87.37241
G1 X133.119 Y17.501 E87.40635
G1 X133.268 Y18.166 E87.44035
G1 X133.343 Y19.097 E87.48695
G1 X133.343 Y43.007 E88.67982
G1 X133.303 Y43.687 E88.71381
G1 X133.184 Y44.357 E88.74776
G1 X132.987 Y45.009 E88.78174
G1 X132.715 Y45.633 E88.8157
G1 X132.371 Y46.221 E88.84969
G1 X131.961 Y46.765 E88.88367
G1 X131.49 Y47.256 E88.91762
G1 X130.965 Y47.69 E88.9516
G1 X130.393 Y48.059 E88.98556
G1 X129.781 Y48.358 E89.01954
G1 X129.139 Y48.583 E89.05348
G1 X128.474 Y48.732 E89.08748
G1 X127.543 Y48.807 E89.13408
G1 X87.655 Y48.808 E91.1241
G1 X10.943 Y48.807 E94.95128
G1 X10.263 Y48.767 E94.98526
G1 X9.593 Y48.648 E95.01921
G1 X8.941 Y48.451 E95.05319
G1 X8.317 Y48.179 E95.08715
G1 X7.729 Y47.835 E95.12114
G1 X7.186 Y47.425 E95.15508
G1 X6.694 Y46.955 E95.18903
G1 X6.26 Y46.429 E95.22305
G1 X5.892 Y45.857 E95.25698
G1 X5.592 Y45.245 E95.29099
G1 X5.367 Y44.603 E95.32493
G1 X5.218 Y43.938 E95.35893
G1 X5.143 Y43.007 E95.40552
G1 X5.143 Y19.097 E96.5984
G1 X5.183 Y18.417 E96.63238
G1 X5.302 Y17.747 E96.66633
G1 X5.499 Y17.095 E96.70031
G1 X5.771 Y16.471 E96.73427
G1 X6.115 Y15.883 E96.76826
G1 X6.525 Y15.339 E96.80225
G1 X6.996 Y14.848 E96.83619
G1 X7.521 Y14.414 E96.87017
G1 X8.093 Y14.045 E96.90413
G0 F3600 X7.908 Y14.631
G1 F1800 X8.472 Y14.295 E96.93689
G1 X9.074 Y14.031 E96.96968
G1 X9.703 Y13.841 E97.00246
G1 X10.35 Y13.73 E97.03521
G1 X10.943 Y13.697 E97.06484
G1 X50.831 Y13.696 E99.05487
G1 X127.543 Y13.697 E102.88204
G1 X128.199 Y13.737 E102.91483
G1 X128.845 Y13.856 E102.9476
G1 X129.472 Y14.053 E102.98039
G1 X130.07 Y14.325 E103.01317
G1 X130.631 Y14.667 E103.04595
G1 X131.146 Y15.075 E103.07873
G1 X131.608 Y15.542 E103.1115
G1 X132.009 Y16.062 E103.14426
G1 X132.345 Y16.627 E103.17706
G1 X132.609 Y17.228 E103.2098
G1 X132.799 Y17.857 E103.24259
G1 X132.91 Y18.504 E103.27534
G1 X132.943 Y19.097 E103.30497
G1 X132.943 Y43.007 E104.49784
G1 X132.903 Y43.663 E104.53063
G1 X132.784 Y44.309 E104.5634
G1 X132.587 Y44.936 E104.59619
G1 X132.315 Y45.534 E104.62897
G1 X131.973 Y46.095 E104.66175
G1 X131.565 Y46.61 E104.69453
G1 X131.098 Y47.072 E104.7273
G1 X130.578 Y47.473 E104.76006
G1 X130.014 Y47.809 E104.79281
G1 X129.412 Y48.073 E104.82561
G1 X128.783 Y48.263 E104.85839
G1 X128.136 Y48.374 E104.89114
G1 X127.543 Y48.407 E104.92077
G1 X87.655 Y48.408 E106.91079
G1 X10.943 Y48.407 E110.73797
G1 X10.287 Y48.367 E110.77076
G1 X9.641 Y48.248 E110.80353
G1 X9.015 Y48.051 E110.83627
G1 X8.416 Y47.779 E110.86909
G1 X7.855 Y47.437 E110.90187
G1 X7.34 Y47.03 E110.93462
G1 X6.879 Y46.562 E110.96739
G1 X6.477 Y46.042 E111.00018
G1 X6.141 Y45.478 E111.03294
G1 X5.877 Y44.876 E111.06573
G1 X5.687 Y44.247 E111.09851
G1 X5.576 Y43.6 E111.13126
G1 X5.543 Y43.007 E111.16089
G1 X5.543 Y19.097 E112.35377
G1 X5.583 Y18.441 E112.38656
G1 X5.702 Y17.795 E112.41933
G1 X5.899 Y17.168 E112.45212
G1 X6.171 Y16.57 E112.48489
G1 X6.513 Y16.009 E112.51767
G1 X6.921 Y15.494 E112.55045
G1 X7.388 Y15.032 E112.58322
G1 X7.908 Y14.631 E112.61599
G0 F3600 X8.293 Y14.857
G1 F1800 X8.849 Y14.557 E112.6475
G1 X9.438 Y14.329 E112.67901
G1 X10.052 Y14.177 E112.71057
G1 X10.943 Y14.097 E112.7552
G1 X50.831 Y14.096 E114.74522
G1 X127.543 Y14.097 E118.5724
G1 X128.174 Y14.137 E118.60394
G1 X128.795 Y14.256 E118.63549
G1 X129.396 Y14.453 E118.66704
G1 X129.967 Y14.724 E118.69858
G1 X130.499 Y15.064 E118.73008
G1 X130.984 Y15.47 E118.76163
G1 X131.414 Y15.933 E118.79316
G1 X131.783 Y16.447 E118.82472
G1 X132.083 Y17.003 E118.85624
G1 X132.311 Y17.592 E118.88775
G1 X132.463 Y18.206 E118.91931
G1 X132.543 Y19.097 E118.96394
G1 X132.543 Y43.007 E120.15682
G1 X132.503 Y43.638 E120.18836
G1 X132.384 Y44.259 E120.21991
G1 X132.187 Y44.859 E120.25141
G1 X131.916 Y45.431 E120.28299
G1 X131.576 Y45.963 E120.31449
G1 X131.17 Y46.448 E120.34604
G1 X130.707 Y46.878 E120.37757
G1 X130.193 Y47.247 E120.40914
G1 X129.637 Y47.547 E120.44066
G1 X129.048 Y47.775 E120.47217
G1 X128.434 Y47.927 E120.50372
G1 X127.543 Y48.007 E120.54835
G1 X87.655 Y48.008 E122.53837
G1 X10.943 Y48.007 E126.36555
G1 X10.312 Y47.967 E126.3971
G1 X9.691 Y47.848 E126.42864
G1 X9.091 Y47.651 E126.46015
G1 X8.519 Y47.38 E126.49173
G1 X7.987 Y47.04 E126.52322
G1 X7.502 Y46.634 E126.55478
G1 X7.072 Y46.171 E126.5863
G1 X6.703 Y45.658 E126.61783
G1 X6.403 Y45.101 E126.64939
G1 X6.175 Y44.512 E126.6809
G1 X6.023 Y43.898 E126.71246
G1 X5.943 Y43.007 E126.75709
G1 X5.943 Y19.097 E127.94997
G1 X5.983 Y18.466 E127.98151
G1 X6.102 Y17.845 E128.01306
G1 X6.299 Y17.245 E128.04456
G1 X6.57 Y16.673 E128.07614
G1 X6.91 Y16.141 E128.10764
G1 X7.316 Y15.656 E128.1392
G1 X7.779 Y15.226 E128.17072
G1 X8.293 Y14.857 E128.20229
G0 F3600 X8.675 Y15.095
G1 F1800 X9.221 Y14.831 E128.23255
G1 X9.797 Y14.642 E128.26279
G1 X10.393 Y14.53 E128.29304
G1 X10.943 Y14.497 E128.32053
G1 X50.831 Y14.496 E130.31055
G1 X127.543 Y14.497 E134.13773
G1 X128.148 Y14.537 E134.16798
G1 X128.743 Y14.656 E134.19825
G1 X129.316 Y14.852 E134.22847
G1 X129.859 Y15.123 E134.25874
G1 X130.362 Y15.462 E134.28901
G1 X130.815 Y15.864 E134.31922
G1 X131.212 Y16.322 E134.34946
G1 X131.545 Y16.829 E134.37972
G1 X131.809 Y17.375 E134.40998
G1 X131.998 Y17.951 E134.44022
G1 X132.11 Y18.547 E134.47048
G1 X132.143 Y19.097 E134.49797
G1 X132.143 Y43.007 E135.69084
G1 X132.103 Y43.612 E135.72109
G1 X131.984 Y44.206 E135.75132
G1 X131.788 Y44.78 E135.78158
G1 X131.517 Y45.323 E135.81185
G1 X131.178 Y45.826 E135.84211
G1 X130.776 Y46.279 E135.87233
G1 X130.318 Y46.676 E135.90257
G1 X129.811 Y47.009 E135.93283
G1 X129.265 Y47.273 E135.96309
G1 X128.689 Y47.462 E135.99333
G1 X128.093 Y47.574 E136.02359
G1 X127.543 Y47.607 E136.05108
